;FLAVOR:Marlin
;TIME:4557
;Filament used: 4.61257m
;Layer height: 0.2
;MINX:17.138
;MINY:16.273
;MINZ:0.2
;MAXX:86.698
;MAXY:107.073
;MAXZ:15.2
;TARGET_MACHINE.NAME:Creality Ender-3 V3 SE
;Generated with Cura_SteamEngine 5.8.1
M82 ;absolute extrusion mode
M220 S100 ;Reset Feedrate
M221 S100 ;Reset Flowrate

G28 ;Home

M420 S1; Use saved mesh leveling data

G92 E0 ;Reset Extruder
G1 Z2.0 F3000 ;Move Z Axis up
G1 X-3 Y20 Z0.28 F5000.0 ;Move to start position
M190 S65 ; Set bed temperature and wait
M109 S205.0 ; Set hotend temperature and wait
G1 X-3 Y100.0 Z0.28 F1500.0 E15 ;Draw the first line
G1 X-2 Y100.0 Z0.28 F5000.0 ;Move to side a little
G1 X-2 Y20 Z0.28 F1500.0 E30 ;Draw the second line
G92 E0 ;Reset Extruder
G1 E-1.0000 F1800 ;Retract a bit
G1 Z2.0 F3000 ;Move Z Axis up
G1 E0.0000 F1800 

G92 E0
G92 E0
G1 F2400 E-0.8
;LAYER_COUNT:75
;LAYER:0
M107
G1 F300 Z0.4
G0 F9000 X34.657 Y19.296 Z0.4
;TYPE:SKIRT
G1 F300 Z0.2
G1 F2400 E0
G1 F1800 X36.221 Y17.834 E0.07121
G1 X38.11 Y16.708 E0.14435
G1 X38.393 Y16.606 E0.15436
G1 X40.145 Y16.333 E0.21333
G1 X49.78 Y16.273 E0.5338
G1 X51.689 Y16.741 E0.59917
G1 X53.715 Y17.792 E0.67508
G1 X55.174 Y19.353 E0.74615
G1 X56.381 Y21.376 E0.8245
G1 X56.663 Y23.094 E0.88241
G1 X56.718 Y41.502 E1.49466
G1 X63.138 Y41.484 E1.70819
G1 X63.138 Y23.22 E2.31566
G1 X63.604 Y21.324 E2.3806
G1 X64.657 Y19.296 E2.4566
G1 X66.221 Y17.834 E2.5278
G1 X68.11 Y16.708 E2.60095
G1 X68.393 Y16.606 E2.61095
G1 X70.145 Y16.333 E2.66993
G1 X79.78 Y16.273 E2.9904
G1 X81.689 Y16.741 E3.05577
G1 X83.715 Y17.792 E3.13168
G1 X85.174 Y19.353 E3.20275
G1 X86.381 Y21.376 E3.2811
G1 X86.663 Y23.094 E3.33901
G1 X86.698 Y56.924 E4.4642
G1 X86.465 Y58.684 E4.52325
G1 X85.665 Y60.173 E4.57946
G1 X86.381 Y61.374 E4.62597
G1 X86.663 Y63.094 E4.68394
G1 X86.698 Y96.923 E5.8091
G1 X86.464 Y98.688 E5.86832
G1 X85.187 Y101.06 E5.95792
G1 X80.723 Y105.524 E6.16789
G1 X78.338 Y106.812 E6.25804
G1 X76.611 Y107.034 E6.31596
G1 X54.085 Y107.073 E7.06517
G1 X52.189 Y106.607 E7.13011
G1 X50.418 Y105.688 E7.19648
G1 X48.338 Y106.812 E7.27511
G1 X46.611 Y107.034 E7.33302
G1 X24.085 Y107.073 E8.08224
G1 X22.189 Y106.607 E8.14718
G1 X20.161 Y105.554 E8.22318
G1 X18.702 Y103.993 E8.29425
G1 X17.495 Y101.97 E8.3726
G1 X17.213 Y100.252 E8.43051
G1 X17.138 Y88.43 E8.82372
G1 X17.606 Y86.522 E8.88906
G1 X18.657 Y84.496 E8.96497
G1 X20.218 Y83.037 E9.03604
G1 X22.241 Y81.83 E9.11439
G1 X23.959 Y81.548 E9.17229
G1 X33.138 Y81.489 E9.47759
G1 X33.138 Y67.073 E9.95707
G1 X24.085 Y67.073 E10.25818
G1 X22.189 Y66.607 E10.32311
G1 X20.161 Y65.554 E10.39912
G1 X18.702 Y63.993 E10.47018
G1 X17.495 Y61.97 E10.54853
G1 X17.213 Y60.252 E10.60644
G1 X17.138 Y48.43 E10.99965
G1 X17.606 Y46.522 E11.06499
G1 X18.657 Y44.496 E11.1409
G1 X20.218 Y43.037 E11.21197
G1 X22.241 Y41.83 E11.29032
G1 X23.959 Y41.548 E11.34822
G1 X33.138 Y41.489 E11.65353
G1 X33.138 Y23.22 E12.26116
G1 X33.604 Y21.324 E12.32609
G1 X34.657 Y19.296 E12.4021
G0 F9000 X34.98 Y19.541
G1 F1800 X36.46 Y18.158 E12.46947
G1 X38.315 Y17.052 E12.5413
G1 X38.456 Y17.001 E12.54629
G1 X40.148 Y16.733 E12.60326
G1 X49.735 Y16.673 E12.92213
G1 X51.546 Y17.117 E12.98415
G1 X53.47 Y18.115 E13.05624
G1 X54.85 Y19.592 E13.12347
G1 X55.998 Y21.516 E13.19799
G1 X56.268 Y23.159 E13.25337
G1 X56.319 Y41.903 E13.8768
G1 X63.538 Y41.883 E14.11691
G1 X63.538 Y23.266 E14.73611
G1 X63.98 Y21.467 E14.79773
G1 X64.98 Y19.541 E14.8699
G1 X66.46 Y18.158 E14.93728
G1 X68.315 Y17.052 E15.00911
G1 X68.456 Y17.001 E15.01409
G1 X70.148 Y16.733 E15.07107
G1 X79.735 Y16.673 E15.38994
G1 X81.546 Y17.117 E15.45196
G1 X83.47 Y18.115 E15.52405
G1 X84.85 Y19.592 E15.59128
G1 X85.998 Y21.516 E15.6658
G1 X86.268 Y23.159 E15.72118
G1 X86.301 Y56.871 E16.84245
G1 X86.077 Y58.562 E16.89918
G1 X85.205 Y60.184 E16.96043
G1 X85.998 Y61.514 E17.01193
G1 X86.268 Y63.159 E17.06738
G1 X86.301 Y96.871 E18.18864
G1 X86.077 Y98.564 E18.24544
G1 X84.863 Y100.818 E18.33059
G1 X80.481 Y105.2 E18.53671
G1 X78.214 Y106.424 E18.6224
G1 X76.56 Y106.637 E18.67787
G1 X54.131 Y106.673 E19.42386
G1 X52.332 Y106.231 E19.48547
G1 X50.414 Y105.236 E19.55734
G1 X48.214 Y106.424 E19.6405
G1 X46.56 Y106.637 E19.69596
G1 X24.131 Y106.673 E20.44196
G1 X22.332 Y106.231 E20.50357
G1 X20.406 Y105.231 E20.57575
G1 X19.026 Y103.754 E20.64298
G1 X17.878 Y101.83 E20.7175
G1 X17.608 Y100.187 E20.77288
G1 X17.538 Y88.475 E21.16243
G1 X17.982 Y86.665 E21.22441
G1 X18.98 Y84.741 E21.2965
G1 X20.457 Y83.361 E21.36373
G1 X22.381 Y82.213 E21.43825
G1 X24.024 Y81.943 E21.49363
G1 X33.538 Y81.887 E21.81007
G1 X33.538 Y66.673 E22.31609
G1 X24.131 Y66.673 E22.62897
G1 X22.332 Y66.231 E22.69059
G1 X20.406 Y65.231 E22.76276
G1 X19.026 Y63.754 E22.83
G1 X17.878 Y61.83 E22.90451
G1 X17.608 Y60.187 E22.95989
G1 X17.538 Y48.475 E23.34944
G1 X17.982 Y46.665 E23.41143
G1 X18.98 Y44.741 E23.48352
G1 X20.457 Y43.361 E23.55075
G1 X22.381 Y42.213 E23.62527
G1 X24.024 Y41.943 E23.68065
G1 X33.538 Y41.887 E23.99709
G1 X33.538 Y23.266 E24.61643
G1 X33.98 Y21.467 E24.67804
G1 X34.98 Y19.541 E24.75022
G0 F9000 X35.303 Y19.786
G1 F1800 X36.699 Y18.482 E24.81376
G1 X38.52 Y17.396 E24.88428
G1 X40.151 Y17.133 E24.93922
G1 X49.69 Y17.073 E25.2565
G1 X51.403 Y17.493 E25.31516
G1 X53.225 Y18.438 E25.38343
G1 X54.529 Y19.834 E25.44696
G1 X55.615 Y21.654 E25.51745
G1 X55.873 Y23.224 E25.57037
G1 X55.92 Y42.304 E26.20498
G1 X63.938 Y42.282 E26.47166
G1 X63.938 Y23.313 E27.10257
G1 X64.357 Y21.609 E27.16093
G1 X65.303 Y19.786 E27.22924
G1 X66.699 Y18.482 E27.29278
G1 X68.52 Y17.396 E27.3633
G1 X70.151 Y17.133 E27.41825
G1 X79.69 Y17.073 E27.73552
G1 X81.403 Y17.493 E27.79419
G1 X83.225 Y18.438 E27.86245
G1 X84.529 Y19.834 E27.92599
G1 X85.615 Y21.654 E27.99648
G1 X85.873 Y23.224 E28.0494
G1 X85.904 Y56.818 E29.16674
G1 X85.689 Y58.44 E29.22116
G1 X84.745 Y60.195 E29.28744
G1 X85.615 Y61.654 E29.34394
G1 X85.873 Y63.224 E29.39686
G1 X85.904 Y96.818 E30.5142
G1 X85.689 Y98.44 E30.56862
G1 X84.539 Y100.576 E30.6493
G1 X80.239 Y104.876 E30.85156
G1 X78.09 Y106.036 E30.93279
G1 X76.509 Y106.24 E30.98581
G1 X54.178 Y106.273 E31.72854
G1 X52.474 Y105.854 E31.7869
G1 X50.71 Y104.939 E31.853
G1 X50.436 Y104.679 E31.86556
G1 X50.187 Y104.904 E31.87672
G1 X48.09 Y106.036 E31.95598
G1 X46.509 Y106.24 E32.009
G1 X24.178 Y106.273 E32.75174
G1 X22.474 Y105.854 E32.8101
G1 X20.651 Y104.908 E32.87841
G1 X19.347 Y103.512 E32.94195
G1 X18.261 Y101.692 E33.01244
G1 X18.003 Y100.122 E33.06536
G1 X17.938 Y88.52 E33.45125
G1 X18.358 Y86.808 E33.50988
G1 X19.303 Y84.986 E33.57814
G1 X20.699 Y83.682 E33.64168
G1 X22.519 Y82.596 E33.71217
G1 X24.089 Y82.338 E33.76509
G1 X33.938 Y82.285 E34.09267
G1 X33.938 Y66.273 E34.62524
G1 X24.178 Y66.273 E34.94985
G1 X22.474 Y65.854 E35.00822
G1 X20.651 Y64.908 E35.07653
G1 X19.347 Y63.512 E35.14007
G1 X18.261 Y61.692 E35.21056
G1 X18.003 Y60.122 E35.26348
G1 X17.938 Y48.52 E35.64937
G1 X18.358 Y46.808 E35.708
G1 X19.303 Y44.986 E35.77626
G1 X20.699 Y43.682 E35.8398
G1 X22.519 Y42.596 E35.91029
G1 X24.089 Y42.338 E35.96321
G1 X33.938 Y42.285 E36.29079
G1 X33.938 Y23.313 E36.9218
G1 X34.357 Y21.609 E36.98017
G1 X35.303 Y19.786 E37.04848
G0 F9000 X35.626 Y20.031
G1 F1800 X36.941 Y18.803 E37.10832
G1 X38.657 Y17.779 E37.17478
G1 X40.154 Y17.533 E37.22524
G1 X49.645 Y17.473 E37.54092
G1 X51.26 Y17.869 E37.59623
G1 X52.98 Y18.761 E37.66067
G1 X54.208 Y20.076 E37.72051
G1 X55.232 Y21.792 E37.78698
G1 X55.478 Y23.289 E37.83743
G1 X55.521 Y42.705 E38.48321
G1 X64.338 Y42.681 E38.77647
G1 X64.338 Y23.359 E39.41912
G1 X64.733 Y21.752 E39.47416
G1 X65.626 Y20.031 E39.53865
G1 X66.941 Y18.803 E39.59849
G1 X68.657 Y17.779 E39.66496
G1 X70.154 Y17.533 E39.71541
G1 X79.645 Y17.473 E40.03109
G1 X81.26 Y17.869 E40.0864
G1 X82.98 Y18.761 E40.15084
G1 X84.208 Y20.076 E40.21068
G1 X85.232 Y21.792 E40.27715
G1 X85.478 Y23.289 E40.32761
G1 X85.507 Y56.766 E41.44106
G1 X85.302 Y58.316 E41.49306
G1 X84.285 Y60.205 E41.56441
G1 X85.232 Y61.792 E41.62588
G1 X85.478 Y63.289 E41.67634
G1 X85.507 Y96.766 E42.78979
G1 X85.302 Y98.316 E42.84179
G1 X84.215 Y100.334 E42.91803
G1 X79.997 Y104.552 E43.11643
G1 X77.966 Y105.648 E43.19319
G1 X76.458 Y105.843 E43.24376
G1 X54.224 Y105.873 E43.98327
G1 X52.617 Y105.478 E44.03831
G1 X50.894 Y104.584 E44.10287
G1 X50.445 Y104.104 E44.12473
G1 X49.997 Y104.552 E44.14581
G1 X47.966 Y105.648 E44.22257
G1 X46.458 Y105.843 E44.27314
G1 X24.224 Y105.873 E45.01265
G1 X22.617 Y105.478 E45.06769
G1 X20.896 Y104.585 E45.13217
G1 X19.668 Y103.27 E45.19202
G1 X18.644 Y101.554 E45.25848
G1 X18.398 Y100.057 E45.30894
G1 X18.338 Y88.565 E45.69117
G1 X18.734 Y86.951 E45.74644
G1 X19.626 Y85.231 E45.81089
G1 X20.941 Y84.003 E45.87073
G1 X22.657 Y82.979 E45.93719
G1 X24.154 Y82.733 E45.98765
G1 X34.338 Y82.683 E46.32638
G1 X34.338 Y65.873 E46.88548
G1 X24.224 Y65.873 E47.22187
G1 X22.617 Y65.478 E47.27691
G1 X20.896 Y64.585 E47.3414
G1 X19.668 Y63.27 E47.40124
G1 X18.644 Y61.554 E47.46771
G1 X18.398 Y60.057 E47.51816
G1 X18.338 Y48.565 E47.90039
G1 X18.734 Y46.951 E47.95567
G1 X19.626 Y45.231 E48.02011
G1 X20.941 Y44.003 E48.07995
G1 X22.657 Y42.979 E48.14642
G1 X24.154 Y42.733 E48.19688
G1 X34.338 Y42.683 E48.5356
G1 X34.338 Y23.359 E49.17832
G1 X34.733 Y21.752 E49.23336
G1 X35.626 Y20.031 E49.29785
G0 F9000 X35.949 Y20.276
G1 F1800 X37.183 Y19.124 E49.354
G1 X38.795 Y18.162 E49.41643
G1 X40.219 Y17.928 E49.46443
G1 X49.6 Y17.873 E49.77645
G1 X51.117 Y18.245 E49.8284
G1 X52.735 Y19.084 E49.88902
G1 X53.887 Y20.318 E49.94517
G1 X54.849 Y21.93 E50.0076
G1 X55.083 Y23.354 E50.0556
G1 X55.122 Y43.106 E50.71256
G1 X64.738 Y43.08 E51.03239
G1 X64.738 Y23.405 E51.68678
G1 X65.109 Y21.895 E51.7385
G1 X65.949 Y20.276 E51.79916
G1 X67.183 Y19.124 E51.85531
G1 X68.795 Y18.162 E51.91775
G1 X70.219 Y17.928 E51.96574
G1 X79.6 Y17.873 E52.27776
G1 X81.117 Y18.245 E52.32971
G1 X82.735 Y19.084 E52.39033
G1 X83.887 Y20.318 E52.44648
G1 X84.849 Y21.93 E52.50892
G1 X85.083 Y23.354 E52.55692
G1 X85.11 Y56.713 E53.66644
G1 X84.914 Y58.192 E53.71606
G1 X83.919 Y60.04 E53.78587
G1 X83.78 Y60.203 E53.793
G1 X83.907 Y60.352 E53.79951
G1 X84.849 Y61.93 E53.86063
G1 X85.083 Y63.354 E53.90863
G1 X85.11 Y96.713 E55.01816
G1 X84.914 Y98.192 E55.06778
G1 X83.891 Y100.092 E55.13955
G1 X79.755 Y104.228 E55.33409
G1 X77.842 Y105.26 E55.40639
G1 X76.407 Y105.446 E55.45452
G1 X54.27 Y105.473 E56.1908
G1 X52.76 Y105.102 E56.24251
G1 X51.139 Y104.261 E56.30325
G1 X50.455 Y103.528 E56.3366
G1 X49.755 Y104.228 E56.36952
G1 X47.842 Y105.26 E56.44182
G1 X46.407 Y105.446 E56.48995
G1 X24.27 Y105.473 E57.22623
G1 X22.76 Y105.102 E57.27794
G1 X21.141 Y104.262 E57.33861
G1 X19.989 Y103.028 E57.39475
G1 X19.027 Y101.416 E57.45719
G1 X18.793 Y99.992 E57.50519
G1 X18.738 Y88.61 E57.88376
G1 X19.11 Y87.094 E57.93568
G1 X19.949 Y85.476 E57.9963
G1 X21.183 Y84.324 E58.05245
G1 X22.795 Y83.362 E58.11488
G1 X24.219 Y83.128 E58.16288
G1 X34.738 Y83.081 E58.51275
G1 X34.738 Y65.473 E59.09839
G1 X24.27 Y65.473 E59.44656
G1 X22.76 Y65.102 E59.49828
G1 X21.141 Y64.262 E59.55894
G1 X19.989 Y63.028 E59.61509
G1 X19.027 Y61.416 E59.67753
G1 X18.793 Y59.992 E59.72552
G1 X18.738 Y48.61 E60.10409
G1 X19.11 Y47.094 E60.15601
G1 X19.949 Y45.476 E60.21663
G1 X21.183 Y44.324 E60.27278
G1 X22.795 Y43.362 E60.33522
G1 X24.219 Y43.128 E60.38322
G1 X34.738 Y43.081 E60.73308
G1 X34.738 Y23.405 E61.38751
G1 X35.109 Y21.895 E61.43923
G1 X35.949 Y20.276 E61.49989
G0 F9000 X36.272 Y20.521
G1 F1800 X37.425 Y19.445 E61.55234
G1 X38.933 Y18.545 E61.61075
G1 X40.284 Y18.323 E61.65629
G1 X49.555 Y18.273 E61.96465
G1 X50.974 Y18.621 E62.01324
G1 X52.49 Y19.407 E62.07004
G1 X53.566 Y20.56 E62.12249
G1 X54.466 Y22.068 E62.1809
G1 X54.688 Y23.419 E62.22644
G1 X54.723 Y43.507 E62.89457
G1 X65.138 Y43.479 E63.24098
G1 X65.138 Y23.452 E63.90708
G1 X65.486 Y22.037 E63.95554
G1 X66.272 Y20.521 E64.01234
G1 X67.425 Y19.445 E64.06479
G1 X68.933 Y18.545 E64.1232
G1 X70.284 Y18.323 E64.16874
G1 X79.555 Y18.273 E64.4771
G1 X80.974 Y18.621 E64.5257
G1 X82.49 Y19.407 E64.58249
G1 X83.566 Y20.56 E64.63495
G1 X84.466 Y22.068 E64.69336
G1 X84.688 Y23.419 E64.73889
G1 X84.713 Y56.661 E65.84453
G1 X84.527 Y58.068 E65.89173
G1 X83.567 Y59.85 E65.95905
G1 X83.224 Y60.193 E65.97519
G1 X83.564 Y60.557 E65.99175
G1 X84.466 Y62.068 E66.05028
G1 X84.688 Y63.419 E66.09582
G1 X84.713 Y96.661 E67.20145
G1 X84.527 Y98.068 E67.24866
G1 X83.567 Y99.85 E67.31598
G1 X79.513 Y103.904 E67.50667
G1 X77.718 Y104.872 E67.5745
G1 X76.355 Y105.049 E67.62021
G1 X54.317 Y105.073 E68.3532
G1 X52.902 Y104.725 E68.40167
G1 X51.384 Y103.938 E68.45854
G1 X50.464 Y102.953 E68.50337
G1 X49.513 Y103.904 E68.5481
G1 X47.718 Y104.872 E68.61593
G1 X46.355 Y105.049 E68.66164
G1 X24.317 Y105.073 E69.39463
G1 X22.902 Y104.725 E69.44309
G1 X21.386 Y103.939 E69.49989
G1 X20.31 Y102.786 E69.55234
G1 X19.41 Y101.278 E69.61075
G1 X19.188 Y99.927 E69.65629
G1 X19.138 Y88.655 E70.0312
G1 X19.486 Y87.237 E70.07977
G1 X20.272 Y85.721 E70.13656
G1 X21.425 Y84.645 E70.18902
G1 X22.933 Y83.745 E70.24743
G1 X24.284 Y83.523 E70.29296
G1 X35.138 Y83.479 E70.65397
G1 X35.138 Y65.073 E71.26616
G1 X24.317 Y65.073 E71.62607
G1 X22.902 Y64.725 E71.67453
G1 X21.386 Y63.939 E71.73133
G1 X20.31 Y62.786 E71.78378
G1 X19.41 Y61.278 E71.84219
G1 X19.188 Y59.927 E71.88773
G1 X19.138 Y48.655 E72.26264
G1 X19.486 Y47.237 E72.3112
G1 X20.272 Y45.721 E72.368
G1 X21.425 Y44.645 E72.42045
G1 X22.933 Y43.745 E72.47886
G1 X24.284 Y43.523 E72.5244
G1 X35.138 Y43.479 E72.88541
G1 X35.138 Y23.452 E73.55151
G1 X35.486 Y22.037 E73.59997
G1 X36.272 Y20.521 E73.65677
G0 F9000 X36.595 Y20.766
G1 F1800 X37.667 Y19.766 E73.70553
G1 X39.071 Y18.928 E73.75991
G1 X40.349 Y18.718 E73.80299
G1 X49.51 Y18.673 E74.10769
G1 X50.831 Y18.997 E74.15293
G1 X52.245 Y19.73 E74.2059
G1 X53.245 Y20.802 E74.25466
G1 X54.083 Y22.206 E74.30904
G1 X54.293 Y23.484 E74.35212
G1 X54.324 Y43.908 E75.03143
G1 X65.538 Y43.878 E75.40441
G1 X65.538 Y23.498 E76.08225
G1 X65.862 Y22.18 E76.12739
G1 X66.595 Y20.766 E76.18036
G1 X67.667 Y19.766 E76.22912
G1 X69.071 Y18.928 E76.28351
G1 X70.349 Y18.718 E76.32658
G1 X79.51 Y18.673 E76.63128
G1 X80.831 Y18.997 E76.67652
G1 X82.245 Y19.73 E76.7295
G1 X83.245 Y20.802 E76.77825
G1 X84.083 Y22.206 E76.83264
G1 X84.293 Y23.484 E76.87571
G1 X84.316 Y56.608 E77.97742
G1 X84.139 Y57.944 E78.02225
G1 X83.243 Y59.608 E78.08511
G1 X82.668 Y60.183 E78.11215
G1 X83.245 Y60.802 E78.1403
G1 X84.083 Y62.206 E78.19468
G1 X84.293 Y63.484 E78.23776
G1 X84.316 Y96.608 E79.33946
G1 X84.139 Y97.944 E79.38429
G1 X83.243 Y99.608 E79.44715
G1 X79.271 Y103.58 E79.63398
G1 X77.594 Y104.484 E79.69734
G1 X76.303 Y104.652 E79.74064
G1 X54.363 Y104.673 E80.47037
G1 X53.045 Y104.349 E80.51551
G1 X51.631 Y103.616 E80.56849
G1 X50.66 Y102.575 E80.61583
G1 X50.51 Y102.341 E80.62508
G1 X49.271 Y103.58 E80.68336
G1 X47.594 Y104.484 E80.74672
G1 X46.303 Y104.652 E80.79002
G1 X24.363 Y104.673 E81.51975
G1 X23.045 Y104.349 E81.56489
G1 X21.631 Y103.616 E81.61787
G1 X20.631 Y102.544 E81.66663
G1 X19.793 Y101.14 E81.72101
G1 X19.583 Y99.862 E81.76409
G1 X19.538 Y88.7 E82.13534
G1 X19.862 Y87.38 E82.18054
G1 X20.595 Y85.966 E82.23352
G1 X21.667 Y84.966 E82.28228
G1 X23.071 Y84.128 E82.33666
G1 X24.349 Y83.918 E82.37974
G1 X35.538 Y83.878 E82.75189
G1 X35.538 Y64.673 E83.39065
G1 X24.363 Y64.673 E83.76233
G1 X23.045 Y64.349 E83.80747
G1 X21.631 Y63.616 E83.86045
G1 X20.631 Y62.544 E83.90921
G1 X19.793 Y61.14 E83.96359
G1 X19.583 Y59.862 E84.00666
G1 X19.538 Y48.7 E84.37792
G1 X19.862 Y47.38 E84.42312
G1 X20.595 Y45.966 E84.4761
G1 X21.667 Y44.966 E84.52486
G1 X23.071 Y44.128 E84.57924
G1 X24.349 Y43.918 E84.62232
G1 X35.538 Y43.878 E84.99447
G1 X35.538 Y23.498 E85.67231
G1 X35.862 Y22.18 E85.71745
G1 X36.595 Y20.766 E85.77042
G0 F9000 X36.917 Y21.013
G1 F1800 X37.912 Y20.085 E85.81568
G1 X39.209 Y19.311 E85.86591
G1 X40.414 Y19.113 E85.90653
G1 X49.465 Y19.073 E86.20757
G1 X50.688 Y19.373 E86.24945
G1 X51.998 Y20.052 E86.29853
G1 X52.926 Y21.047 E86.34378
G1 X53.7 Y22.344 E86.39402
G1 X53.898 Y23.549 E86.43463
G1 X53.925 Y44.394 E87.12794
G1 X54.476 Y44.308 E87.14649
